!!!OTL: BIN DER KLEINE TAMBOUR VEIT
!!!ARE: Europa, Mitteleuropa, Deutschland
!!!SCT: F0602A
!!!YEM: Copyright 1995, estate of Helmut Schaffrath.
**kern
*ICvox
*Ivox
*M4/4
*k[b-e-]
*B-:
{8f
8f
=1
8.b-
16a
8.b-
16a
8.b-
16a
8.b-
16cc
=2
4dd
2r}
{8ee-
8dd
=3
8.cc
16bn
8.cc
16bn
8.cc
16ee-
8.dd
16cc
=4
4.b-
16a
16g
4f}
{8f
8f
=5
8.b-
16a
8.b-
16a
8.b-
16a
8.b-
16cc
=6
2dd
4een}
{8ff
8ff
=7
8.ff
16een
8.dd
16cc
8.cc
16b-
8.a
16g
=8
2f
4r}
{8f
8f
=9
4f
4cc
4dd
4cc
=10
4cc
4b-
4r}
{8b-
8b-
=11
4dd
8cc
8cc
4cc
4b-
=12
4a
2r}
{8f#
8f#
=13
4g
4d
4g
4d
=14
4.g
8a
4b-}
{8a
8g
=15
4dd
4dd
4d
4d
=16
2g
8.r}
{16g
8.g
16g-
=17
4f
4f
4f
4f
=18
2f
4r}
{8a
8b-
=19
4.cc
8cc
8dd
8cc
8b-
8cc
=20
4dd
4cc
8.b-}
{16f
8.f
16f
=21
4f
4f
4f
4f
=22
4f
4.r}
{8b-
8.a
16b-
=23
4.cc
16dd
16cc
4b-
4a
=24
2b-
4r}
==
!!!AGN: Soldaten - Lied, Liebe
!! Strophenvariante zu F0602
!!!ONB: ESAC (Essen Associative Code) Database: FINK
!!!AMT: simple quadruple
!!!AIN: vox
!!!EED: Helmut Schaffrath
!!!EEV: 1.0
*-
